src/assets/projects/icon-team.svg

<svg fill="none" height="16" viewBox="0 0 16 16" width="16" xmlns="http://www.w3.org/2000/svg" xmlns:xlink="http://www.w3.org/1999/xlink"><clipPath id="a"><path d="m0 0h16v16h-16z"/></clipPath><g clip-path="url(#a)"><path clip-rule="evenodd" d="m10.6305 2.33061c1.2358 1.67905.2149 3.73749-1.4506 4.65827l.00003.00003c-1.66552.89373-4.02962.7853-5.07732-.94781-.618-1.0292-.618-2.92501.40289-3.57505 0-.21667.10737-.40615.32231-.54161 1.79985-1.056212 4.37886-1.543802 5.80269.40617zm-1.4236 2.95199c.9401-.948.72538-2.24793-.51046-2.78954l.00001.00006c-.85975-.37917-1.74626-.16246-2.55224.27072.10756.40615-.08059.89374-.61782.83952-1.15508-.10828-.34911 1.73328-.10738 2.00419.34928.35212.83274.54161 1.34321.59582.85975.05422 1.82686-.29791 2.44468-.92077zm3.5586 4.41559c1.1552 1.24591 1.6657 3.00621 2.0685 4.63131h.0001c.1074.4062-.1881.8936-.6448.8392-3.8415-.298-7.62931-.027-11.36339.8125-.83274.1897-1.18202-1.1103-.34929-1.2999.0536-.0271.08058-.0271.10738-.0271-.75218-1.2999-.56404-2.8977.34928-4.0895 1.15515-1.5166 3.16994-2.11243 4.96982-2.35613 1.79989-.21666 3.5998.10843 4.8624 1.48962zm-8.94558 4.44161c.0536.0813.10738.1897.10738.2709h.00017c3.08935-.5958 6.23233-.7855 9.37553-.596-.6449-2.1937-1.6657-4.27917-4.29835-4.30619-2.14906-.02698-7.09216 1.57089-5.18473 4.63129z" fill="#777" fill-rule="evenodd"/></g></svg>

<svg width="16" height="16" viewBox="0 0 16 16" fill="none" xmlns="http://www.w3.org/2000/svg">
<g clip-path="url(#clip0_4896_12964)">
<path fill-rule="evenodd" clip-rule="evenodd" d="M10.6305 2.33061C11.8663 4.00966 10.8454 6.0681 9.1799 6.98888L9.17993 6.98891C7.51441 7.88264 5.15031 7.77421 4.10261 6.0411C3.48461 5.0119 3.48461 3.11609 4.5055 2.46605C4.5055 2.24938 4.61287 2.0599 4.82781 1.92444C6.62766 0.868228 9.20667 0.380638 10.6305 2.33061ZM9.2069 5.2826C10.147 4.3346 9.93228 3.03467 8.69644 2.49306L8.69645 2.49312C7.8367 2.11395 6.95019 2.33066 6.14421 2.76384C6.25177 3.16999 6.06362 3.65758 5.52639 3.60336C4.37131 3.49508 5.17728 5.33664 5.41901 5.60755C5.76829 5.95967 6.25175 6.14916 6.76222 6.20337C7.62197 6.25759 8.58908 5.90546 9.2069 5.2826ZM12.7655 9.69819C13.9207 10.9441 14.4312 12.7044 14.834 14.3295L14.8341 14.3295C14.9415 14.7357 14.646 15.2231 14.1893 15.1687C10.3478 14.8707 6.55999 15.1417 2.82591 15.9812C1.99317 16.1709 1.64389 14.8709 2.47662 14.6813C2.53022 14.6542 2.5572 14.6542 2.584 14.6542C1.83182 13.3543 2.01996 11.7565 2.93328 10.5647C4.08843 9.0481 6.10322 8.45227 7.9031 8.20857C9.70299 7.99191 11.5029 8.317 12.7655 9.69819ZM3.81992 14.1398C3.87352 14.2211 3.9273 14.3295 3.9273 14.4107L3.92747 14.4107C7.01682 13.8149 10.1598 13.6252 13.303 13.8147C12.6581 11.621 11.6373 9.53553 9.00465 9.50851C6.85559 9.48153 1.91249 11.0794 3.81992 14.1398Z" fill="#777777"/>
</g>
<defs>
<clipPath id="clip0_4896_12964">
<rect width="16" height="16" fill="white"/>
</clipPath>
</defs>
</svg>
